X: 4
T: The Heather Breeze
R: reel
M: 4/4
L: 1/8
K: Gmaj
DGBG dGBG|DFAB cBAF|DGBG dGBG|B/c/dcA BGG2:|~g3f gbag|fdde fgaf|~g3f gbag|fdcA BGG2|~g3f gbag|fdde fgaf|defg ~a3g|fdcA BGG2||


Tune 411	Setting 13260

